; generated by PrusaSlicer 2.3.0 on 2021-03-31 at 13:20:09 UTC

; 

; external perimeters extrusion width = 0.45mm
; perimeters extrusion width = 0.45mm
; infill extrusion width = 0.45mm
; solid infill extrusion width = 0.45mm
; top infill extrusion width = 0.40mm
; support material extrusion width = 0.38mm
; first layer extrusion width = 0.42mm

M201 X500 Y500 Z100 E5000 ; sets maximum accelerations, mm/sec^2
M203 X500 Y500 Z10 E60 ; sets maximum feedrates, mm/sec
M204 P500 R1000 T500 ; sets acceleration (P, T) and retract acceleration (R), mm/sec^2
M205 X8.00 Y8.00 Z0.40 E5.00 ; sets the jerk limits, mm/sec
M205 S0 T0 ; sets the minimum extruding and travel feed rate, mm/sec
M107
;TYPE:Custom
G90 ; use absolute coordinates
M83 ; extruder relative mode
M104 S215 ; set extruder temp
M140 S60 ; set bed temp
M190 S60 ; wait for bed temp
M109 S215 ; wait for extruder temp
G28 ; home all
G1 Z2 F240
G1 X2 Y10 F3000
G1 Z0.28 F240
G92 E0
G1 Y190 E15 F1500 ; intro line
G1 X2.3 F5000
G92 E0
G1 Y10 E15 F1200 ; intro line
G92 E0
G21 ; set units to millimeters
G90 ; use absolute coordinates
M83 ; use relative distances for extrusion
; Filament gcode
;LAYER_CHANGE
;Z:0.2
;HEIGHT:0.2
;BEFORE_LAYER_CHANGE
G92 E0
;0.2


G1 E-5.00000 F3600.000
G1 Z0.200 F9000.000
;AFTER_LAYER_CHANGE
;0.2
G1 X85.539 Y103.412
G1 E5.00000 F2400.000
;TYPE:Skirt
;WIDTH:0.42
G1 F1200.000
G1 X86.101 Y103.182 E0.01906
G1 X86.658 Y103.102 E0.01763
G1 X96.651 Y102.932 E0.31338
G1 X146.432 Y103.102 E1.56087
G1 X147.039 Y103.183 E0.01917
G1 X147.682 Y103.464 E0.02201
G1 X148.216 Y103.920 E0.02201
G1 X148.592 Y104.513 E0.02201
G1 X148.780 Y105.189 E0.02201
G1 X148.798 Y116.320 E0.34898
G1 X148.716 Y116.926 E0.01917
G1 X148.479 Y117.498 E0.01941
G1 X148.099 Y117.991 E0.01953
G1 X145.704 Y120.290 E0.10407
G1 X144.878 Y120.750 E0.02966
G1 X135.440 Y123.146 E0.30531
G1 X114.181 Y127.866 E0.68278
G1 X84.572 Y128.068 E0.92841
G1 X84.003 Y127.997 E0.01799
G1 X83.467 Y127.791 E0.01799
G1 X82.965 Y127.435 E0.01929
G1 X82.573 Y126.966 E0.01917
G1 X82.313 Y126.408 E0.01929
G1 X82.205 Y125.802 E0.01929
G1 X82.203 Y107.790 E0.56476
G1 X82.276 Y107.236 E0.01752
G1 X82.479 Y106.712 E0.01763
G1 X82.792 Y106.258 E0.01728
G1 X85.053 Y103.778 E0.10524
G1 X85.491 Y103.448 E0.01718
G1 E-3.50000 F3600.000
;WIPE_START
G1 F7200.000
G1 X86.101 Y103.182 E-0.31634
G1 X86.658 Y103.102 E-0.26715
G1 X88.429 Y103.072 E-0.84151
;WIPE_END
G1 E-0.07500 F3600.000
G1 X139.074 Y123.386 F9000.000
G1 E5.00000 F2400.000
G1 F1200.000
G1 X138.849 Y123.769 E0.01393
G1 X137.983 Y124.660 E0.03897
G1 X136.952 Y125.302 E0.03805
G1 X135.483 Y125.718 E0.04788
G1 X127.194 Y125.732 E0.25990
G1 X126.901 Y126.229 E0.01808
G1 X126.062 Y127.052 E0.03686
G1 X124.853 Y127.749 E0.04375
G1 X123.498 Y128.078 E0.04374
G1 X117.963 Y128.078 E0.17353
G1 X117.738 Y128.461 E0.01395
G1 X116.907 Y129.323 E0.03753
G1 X115.900 Y129.967 E0.03746
G1 X114.331 Y130.414 E0.05118
G1 X87.280 Y130.423 E0.84816
G1 X86.674 Y130.398 E0.01900
G1 X86.435 Y130.423 E0.00755
G1 X84.987 Y130.423 E0.04540
G1 X84.734 Y130.397 E0.00797
G1 X83.992 Y130.407 E0.02328
G1 X82.752 Y130.147 E0.03970
G1 X81.676 Y129.579 E0.03816
G1 X80.706 Y128.662 E0.04185
G1 X80.017 Y127.534 E0.04144
G1 X79.677 Y126.206 E0.04298
G1 X79.719 Y107.058 E0.60036
G1 X80.125 Y105.739 E0.04329
G1 X80.723 Y104.775 E0.03556
G1 X81.741 Y103.808 E0.04403
G1 X82.236 Y103.527 E0.01784
G1 X82.764 Y102.546 E0.03494
G1 X83.624 Y101.660 E0.03870
G1 X84.740 Y100.970 E0.04116
G1 X85.960 Y100.617 E0.03982
G1 X87.283 Y100.577 E0.04148
G1 X96.209 Y100.577 E0.27988
G1 X96.814 Y100.602 E0.01898
G1 X97.053 Y100.577 E0.00755
G1 X100.073 Y100.577 E0.09470
G1 X100.225 Y100.595 E0.00479
G1 X100.377 Y100.577 E0.00480
G1 X146.974 Y100.587 E1.46103
G1 X148.591 Y101.064 E0.05286
G1 X149.722 Y101.843 E0.04307
G1 X150.565 Y102.819 E0.04042
G1 X150.997 Y103.678 E0.03015
G1 X151.273 Y104.655 E0.03181
G1 X151.294 Y117.018 E0.38764
G1 X150.975 Y118.170 E0.03750
G1 X150.328 Y119.239 E0.03918
G1 X149.306 Y120.208 E0.04416
G1 X148.592 Y120.589 E0.02535
G1 X148.481 Y120.842 E0.00867
G1 X147.973 Y121.584 E0.02819
G1 X147.118 Y122.415 E0.03739
G1 X145.997 Y123.049 E0.04036
G1 X144.552 Y123.386 E0.04652
G1 X139.134 Y123.386 E0.16989
G1 E-3.50000 F3600.000
;WIPE_START
G1 F7200.000
G1 X138.849 Y123.769 E-0.22677
G1 X137.983 Y124.660 E-0.59036
G1 X136.952 Y125.302 E-0.57647
G1 X136.889 Y125.320 E-0.03140
;WIPE_END
G1 E-0.07500 F3600.000
G1 X148.297 Y120.317 F9000.000
G1 E5.00000 F2400.000
G1 F1200.000
G1 X148.158 Y120.646 E0.01118
G1 X147.673 Y121.354 E0.02694
G1 X146.874 Y122.126 E0.03482
G1 X145.837 Y122.707 E0.03726
G1 X144.531 Y123.009 E0.04203
G1 X138.852 Y123.009 E0.17807
G1 X138.560 Y123.526 E0.01862
G1 X137.761 Y124.354 E0.03606
G1 X136.823 Y124.947 E0.03479
G1 X135.405 Y125.348 E0.04620
G1 X126.973 Y125.355 E0.26439
G1 X126.617 Y125.979 E0.02252
G1 X125.815 Y126.767 E0.03525
G1 X124.737 Y127.390 E0.03903
G1 X123.474 Y127.701 E0.04077
G1 X117.741 Y127.701 E0.17977
G1 X117.449 Y128.218 E0.01864
G1 X116.651 Y129.045 E0.03602
G1 X115.722 Y129.634 E0.03450
G1 X114.304 Y130.037 E0.04621
G1 X87.284 Y130.046 E0.84722
G1 X86.661 Y130.020 E0.01953
G1 X86.424 Y130.046 E0.00748
G1 X84.998 Y130.046 E0.04472
G1 X84.752 Y130.019 E0.00773
G1 X84.008 Y130.030 E0.02335
G1 X82.858 Y129.784 E0.03686
G1 X81.878 Y129.259 E0.03487
G1 X80.984 Y128.407 E0.03872
G1 X80.375 Y127.412 E0.03658
G1 X80.054 Y126.182 E0.03984
G1 X80.088 Y107.142 E0.59697
G1 X80.478 Y105.873 E0.04165
G1 X81.000 Y105.032 E0.03103
G1 X81.982 Y104.099 E0.04248
G1 X82.516 Y103.804 E0.01913
G1 X83.053 Y102.789 E0.03600
G1 X83.878 Y101.939 E0.03712
G1 X84.870 Y101.325 E0.03658
G1 X86.041 Y100.986 E0.03824
G1 X87.285 Y100.954 E0.03899
G1 X96.205 Y100.954 E0.27969
G1 X96.827 Y100.980 E0.01952
G1 X97.064 Y100.954 E0.00748
G1 X100.060 Y100.954 E0.09393
G1 X100.225 Y100.976 E0.00523
G1 X100.391 Y100.954 E0.00524
G1 X146.946 Y100.964 E1.45972
G1 X148.454 Y101.416 E0.04935
G1 X149.454 Y102.109 E0.03813
G1 X150.240 Y103.011 E0.03751
G1 X150.639 Y103.799 E0.02770
G1 X150.903 Y104.732 E0.03041
G1 X150.917 Y116.991 E0.38438
G1 X150.620 Y118.043 E0.03427
G1 X150.050 Y118.983 E0.03446
G1 X149.066 Y119.916 E0.04252
G1 X148.350 Y120.289 E0.02533
G1 E-3.50000 F3600.000
;WIPE_START
G1 F7200.000
G1 X148.158 Y120.646 E-0.19224
G1 X147.673 Y121.354 E-0.40807
G1 X146.874 Y122.126 E-0.52757
G1 X146.328 Y122.432 E-0.29712
;WIPE_END
G1 E-0.07500 F3600.000
G1 X126.566 Y125.309 F9000.000
G1 E5.00000 F2400.000
G1 F1200.000
G1 X126.333 Y125.730 E0.01507
G1 X125.568 Y126.481 E0.03362
G1 X124.619 Y127.030 E0.03436
G1 X123.451 Y127.323 E0.03777
G1 X117.516 Y127.323 E0.18608
G1 X117.158 Y127.977 E0.02335
G1 X116.428 Y128.741 E0.03314
G1 X115.590 Y129.280 E0.03124
G1 X114.277 Y129.660 E0.04284
G1 X87.287 Y129.669 E0.84624
G1 X86.647 Y129.642 E0.02010
G1 X86.413 Y129.669 E0.00740
G1 X85.009 Y129.669 E0.04401
G1 X84.772 Y129.642 E0.00748
G1 X84.023 Y129.653 E0.02348
G1 X83.010 Y129.438 E0.03246
G1 X82.117 Y128.967 E0.03167
G1 X81.291 Y128.186 E0.03565
G1 X80.731 Y127.287 E0.03320
G1 X80.432 Y126.157 E0.03664
G1 X80.457 Y107.227 E0.59356
G1 X80.831 Y106.008 E0.03997
G1 X81.306 Y105.254 E0.02794
G1 X82.222 Y104.391 E0.03945
G1 X82.797 Y104.082 E0.02049
G1 X83.344 Y103.031 E0.03712
G1 X84.133 Y102.219 E0.03551
G1 X85.000 Y101.680 E0.03200
G1 X86.122 Y101.355 E0.03664
G1 X87.286 Y101.331 E0.03650
G1 X96.201 Y101.331 E0.27952
G1 X96.841 Y101.358 E0.02009
G1 X97.075 Y101.331 E0.00740
G1 X100.045 Y101.331 E0.09310
G1 X100.225 Y101.357 E0.00571
G1 X100.406 Y101.331 E0.00572
G1 X146.918 Y101.341 E1.45836
G1 X148.315 Y101.768 E0.04581
G1 X149.186 Y102.375 E0.03329
G1 X149.915 Y103.204 E0.03462
G1 X150.281 Y103.920 E0.02520
G1 X150.533 Y104.810 E0.02900
G1 X150.540 Y116.964 E0.38109
G1 X150.265 Y117.914 E0.03100
G1 X149.773 Y118.727 E0.02980
G1 X148.827 Y119.623 E0.04084
G1 X147.999 Y120.045 E0.02914
G1 X147.835 Y120.450 E0.01373
G1 X147.373 Y121.125 E0.02564
G1 X146.631 Y121.836 E0.03222
G1 X145.678 Y122.364 E0.03415
G1 X144.510 Y122.632 E0.03758
G1 X138.627 Y122.632 E0.18446
G1 X138.269 Y123.285 E0.02334
G1 X137.538 Y124.050 E0.03317
G1 X136.693 Y124.592 E0.03147
G1 X135.328 Y124.978 E0.04448
G1 X128.059 Y124.978 E0.22791
G1 X128.018 Y124.601 F9000.000
G1 F1200.000
G1 X126.523 Y124.601 E0.04685
G1 X126.320 Y124.978 E0.01344
G1 X126.082 Y125.417 F9000.000
G1 F1200.000
G1 X126.047 Y125.481 E0.00230
G1 X125.320 Y126.196 E0.03196
G1 X124.500 Y126.672 E0.02973
G1 X123.427 Y126.946 E0.03474
G1 X119.194 Y126.946 E0.13272
G1 X117.454 Y126.946 F9000.000
G1 F1200.000
G1 X117.289 Y126.946 E0.00518
G1 X117.267 Y126.988 E0.00148
G1 X117.032 Y127.426 F9000.000
G1 F1200.000
G1 X116.866 Y127.737 E0.01103
G1 X116.202 Y128.438 E0.03028
G1 X115.455 Y128.927 E0.02798
G1 X114.249 Y129.283 E0.03942
G1 X87.291 Y129.292 E0.84525
G1 X86.631 Y129.264 E0.02071
G1 X86.401 Y129.292 E0.00729
G1 X85.021 Y129.292 E0.04326
G1 X84.793 Y129.264 E0.00721
G1 X84.038 Y129.275 E0.02366
G1 X83.160 Y129.092 E0.02812
G1 X82.357 Y128.674 E0.02840
G1 X81.567 Y127.928 E0.03405
G1 X81.088 Y127.161 E0.02838
G1 X80.809 Y126.132 E0.03342
G1 X80.825 Y107.310 E0.59013
G1 X81.184 Y106.144 E0.03826
G1 X81.610 Y105.478 E0.02480
G1 X82.459 Y104.685 E0.03643
G1 X83.077 Y104.362 E0.02184
G1 X83.665 Y103.231 E0.03997
G1 X84.385 Y102.499 E0.03219
G1 X85.132 Y102.034 E0.02758
G1 X86.156 Y101.732 E0.03348
G1 X87.288 Y101.708 E0.03551
G1 X96.197 Y101.708 E0.27933
G1 X96.856 Y101.736 E0.02070
G1 X97.087 Y101.708 E0.00729
G1 X100.028 Y101.708 E0.09221
G1 X100.225 Y101.740 E0.00625
G1 X100.422 Y101.708 E0.00625
G1 X146.889 Y101.718 E1.45693
G1 X148.174 Y102.119 E0.04221
G1 X148.919 Y102.642 E0.02854
G1 X149.592 Y103.399 E0.03176
G1 X149.924 Y104.041 E0.02267
G1 X150.163 Y104.887 E0.02757
G1 X150.163 Y116.937 E0.37782
G1 X149.928 Y117.742 E0.02628
G1 X149.494 Y118.471 E0.02662
G1 X148.589 Y119.329 E0.03910
G1 X147.700 Y119.772 E0.03113
G1 X147.511 Y120.256 E0.01631
G1 X147.073 Y120.896 E0.02429
G1 X146.390 Y121.546 E0.02957
G1 X145.521 Y122.020 E0.03104
G1 X144.489 Y122.255 E0.03318
G1 X139.714 Y122.255 E0.14971
G1 X138.193 Y122.641 F9000.000
G1 F1200.000
G1 X137.977 Y123.045 E0.01436
G1 X137.313 Y123.747 E0.03030
G1 X136.560 Y124.238 E0.02816
G1 X135.301 Y124.601 E0.04110
G1 X129.757 Y124.601 E0.17382
G1 X129.716 Y124.224 F9000.000
G1 F1200.000
G1 X126.295 Y124.224 E0.10725
G1 X125.840 Y125.084 E0.03052
G1 X125.432 Y125.561 F9000.000
G1 F1200.000
G1 X125.107 Y125.884 E0.01435
G1 X124.378 Y126.314 E0.02655
G1 X123.402 Y126.569 E0.03164
G1 X120.892 Y126.569 E0.07871
G1 X119.152 Y126.569 F9000.000
G1 F1200.000
G1 X117.060 Y126.569 E0.06561
G1 X116.784 Y127.095 E0.01862
G1 X116.537 Y127.536 F9000.000
G1 F1200.000
G1 X115.974 Y128.137 E0.02582
G1 X115.318 Y128.574 E0.02470
G1 X114.221 Y128.906 E0.03594
G1 X87.308 Y128.915 E0.84385
G1 X87.117 Y128.894 E0.00602
G1 X86.607 Y128.887 E0.01599
G1 X86.388 Y128.915 E0.00692
G1 X85.034 Y128.915 E0.04247
G1 X84.815 Y128.887 E0.00692
G1 X84.055 Y128.898 E0.02383
G1 X83.266 Y128.729 E0.02529
G1 X82.557 Y128.354 E0.02514
G1 X81.845 Y127.672 E0.03091
G1 X81.443 Y127.033 E0.02368
G1 X81.186 Y126.106 E0.03016
G1 X81.194 Y107.394 E0.58668
G1 X81.537 Y106.281 E0.03653
G1 X81.913 Y105.704 E0.02159
G1 X82.695 Y104.980 E0.03343
G1 X83.417 Y104.612 E0.02539
G1 X83.469 Y104.416 E0.00636
G1 X83.954 Y103.475 E0.03321
G1 X84.638 Y102.779 E0.03060
G1 X85.263 Y102.389 E0.02311
G1 X86.237 Y102.101 E0.03185
G1 X87.289 Y102.085 E0.03297
G1 X96.180 Y102.085 E0.27879
G1 X96.371 Y102.106 E0.00602
G1 X96.881 Y102.113 E0.01599
G1 X97.100 Y102.085 E0.00692
G1 X100.010 Y102.085 E0.09124
G1 X100.225 Y102.123 E0.00684
G1 X100.440 Y102.085 E0.00685
G1 X146.859 Y102.095 E1.45543
G1 X148.031 Y102.469 E0.03857
G1 X148.652 Y102.910 E0.02390
G1 X149.269 Y103.596 E0.02892
G1 X149.566 Y104.163 E0.02008
G1 X149.793 Y104.965 E0.02613
G1 X149.786 Y116.908 E0.37449
G1 X149.574 Y117.611 E0.02299
G1 X149.215 Y118.216 E0.02206
G1 X148.350 Y119.036 E0.03736
G1 X147.667 Y119.371 E0.02387
G1 X147.422 Y119.437 E0.00795
G1 X147.186 Y120.063 E0.02097
G1 X146.773 Y120.665 E0.02290
G1 X146.150 Y121.254 E0.02688
G1 X145.366 Y121.676 E0.02792
G1 X144.468 Y121.878 E0.02883
G1 X141.200 Y121.878 E0.10249
G1 X139.667 Y121.878 F9000.000
G1 F1200.000
G1 X138.171 Y121.878 E0.04692
G1 X137.941 Y122.316 E0.01551
G1 X137.706 Y122.765 F9000.000
G1 F1200.000
G1 X137.085 Y123.446 E0.02889
G1 X136.425 Y123.884 E0.02482
G1 X135.273 Y124.224 E0.03766
G1 X131.455 Y124.224 E0.11971
G1 X131.414 Y123.847 F9000.000
G1 F1200.000
G1 X126.001 Y123.847 E0.16973
G1 X125.937 Y124.092 E0.00796
G1 X125.473 Y124.989 E0.03164
G1 X125.244 Y125.217 E0.01014
G1 X124.618 Y125.742 F9000.000
G1 F1200.000
G1 X124.255 Y125.957 E0.01323
G1 X123.377 Y126.192 E0.02851
G1 X122.590 Y126.192 E0.02467
G1 X120.850 Y126.192 F9000.000
G1 F1200.000
G1 X116.746 Y126.192 E0.12869
G1 X116.659 Y126.522 E0.01070
G1 X116.309 Y127.201 E0.02393
G1 X115.890 Y127.680 F9000.000
G1 F1200.000
G1 X115.743 Y127.838 E0.00677
G1 X115.178 Y128.223 E0.02142
G1 X114.192 Y128.529 E0.03238
G1 X87.319 Y128.538 E0.84258
G1 X87.142 Y128.517 E0.00560
G1 X86.583 Y128.509 E0.01752
G1 X86.374 Y128.538 E0.00661
G1 X85.047 Y128.538 E0.04162
G1 X84.838 Y128.509 E0.00661
G1 X84.070 Y128.520 E0.02410
G1 X83.419 Y128.383 E0.02086
G1 X82.758 Y128.033 E0.02345
G1 X82.124 Y127.418 E0.02771
G1 X81.798 Y126.902 E0.01912
G1 X81.563 Y126.079 E0.02685
G1 X81.563 Y107.478 E0.58320
G1 X81.889 Y106.419 E0.03475
G1 X82.213 Y105.933 E0.01831
G1 X82.929 Y105.277 E0.03047
G1 X83.552 Y104.967 E0.02180
G1 X83.740 Y104.911 E0.00616
G1 X83.818 Y104.561 E0.01123
G1 X84.244 Y103.718 E0.02962
G1 X84.892 Y103.059 E0.02897
G1 X85.398 Y102.742 E0.01872
G1 X86.270 Y102.477 E0.02859
G1 X87.290 Y102.462 E0.03199
G1 X96.169 Y102.462 E0.27838
G1 X96.346 Y102.483 E0.00560
G1 X96.905 Y102.491 E0.01752
G1 X97.114 Y102.462 E0.00661
G1 X99.990 Y102.462 E0.09019
G1 X100.225 Y102.508 E0.00751
G1 X100.460 Y102.462 E0.00751
G1 X146.828 Y102.472 E1.45384
G1 X147.885 Y102.817 E0.03486
G1 X148.387 Y103.178 E0.01938
G1 X148.948 Y103.794 E0.02613
G1 X149.209 Y104.285 E0.01744
G1 X149.423 Y105.042 E0.02466
G1 X149.409 Y116.878 E0.37112
G1 X149.221 Y117.477 E0.01966
G1 X148.937 Y117.961 E0.01760
G1 X148.113 Y118.741 E0.03556
G1 X147.525 Y119.021 E0.02043
G1 X147.221 Y119.096 E0.00984
G1 X147.104 Y119.208 F9000.000
G1 F1200.000
G1 X146.860 Y119.872 E0.02217
G1 X146.499 Y120.406 E0.02021
G1 X145.910 Y120.962 E0.02539
G1 X145.212 Y121.331 E0.02474
G1 X144.448 Y121.501 E0.02456
G1 X142.685 Y121.501 E0.05528
G1 X141.152 Y121.501 F9000.000
G1 F1200.000
G1 X137.857 Y121.501 E0.10333
G1 X137.771 Y121.828 E0.01061
G1 X137.456 Y122.439 E0.02155
G1 X137.055 Y122.930 F9000.000
G1 F1200.000
G1 X136.854 Y123.147 E0.00928
G1 X136.288 Y123.532 E0.02147
G1 X135.245 Y123.847 E0.03414
G1 X133.153 Y123.847 E0.06559
G1 X133.112 Y123.470 F9000.000
G1 F1200.000
G1 X125.684 Y123.470 E0.23288
G1 X125.587 Y123.950 E0.01538
G1 X125.185 Y124.743 E0.02787
G1 X124.609 Y125.316 E0.02549
G1 X124.497 Y125.383 E0.00409
G1 X122.549 Y125.815 F9000.000
G1 F1200.000
G1 X116.444 Y125.815 E0.19140
G1 X116.312 Y126.372 E0.01794
G1 X115.955 Y127.065 E0.02442
G1 X115.699 Y127.336 E0.01172
G1 X115.043 Y127.868 F9000.000
G1 F1200.000
G1 X114.162 Y128.152 E0.02903
G1 X99.199 Y128.157 E0.46915
G1 E-3.50000 F3600.000
;WIPE_START
G1 F7200.000
G1 X102.199 Y128.156 E-1.42500
;WIPE_END
G1 E-0.07500 F3600.000
G1 X83.592 Y128.041 F9000.000
G1 E5.00000 F2400.000
G1 F1200.000
G1 X83.546 Y128.024 E0.00154
G1 X83.241 Y127.862 F9000.000
G1 F1200.000
G1 X82.959 Y127.713 E0.00998
G1 X82.404 Y127.165 E0.02448
G1 X82.152 Y126.769 E0.01471
G1 X81.940 Y126.051 E0.02348
G1 X81.940 Y107.508 E0.58140
G1 X82.239 Y106.561 E0.03114
G1 X82.510 Y106.166 E0.01502
G1 X83.148 Y105.588 E0.02699
G1 X83.972 Y105.244 F9000.000
G1 F1200.000
G1 X84.066 Y105.219 E0.00305
G1 X84.086 Y105.119 E0.00321
G1 X84.420 Y104.192 F9000.000
G1 F1200.000
G1 X84.534 Y103.960 E0.00810
G1 X85.146 Y103.339 E0.02732
G1 X85.532 Y103.095 E0.01432
G1 X86.350 Y102.847 E0.02682
